Newaita-dark/actions/16/distribute-horizontal.svg

<svg height="16" viewBox="0 0 16 16" width="16" xmlns="http://www.w3.org/2000/svg"><g fill="#e0e0e0"><path d="m9.261719 8.394531h-2.648438v-.804687h2.648438zm0 0"/><path d="m14.554688 3.433594c0-.734375-.589844-1.324219-1.324219-1.324219h-1.984375c-.734375 0-1.324219.589844-1.324219 1.324219v9.261718c0 .730469.589844 1.320313 1.324219 1.320313h1.984375c.734375 0 1.324219-.589844 1.324219-1.320313zm-1.324219.328125v8.601562c0 .183594-.148438.332031-.332031.332031h-1.320313c-.183594 0-.332031-.148437-.332031-.332031v-8.601562c0-.179688.148437-.328125.332031-.328125h1.320313c.183593 0 .332031.148437.332031.328125zm0 0"/><path d="m5.953125 3.433594c0-.734375-.589844-1.324219-1.324219-1.324219h-1.984375c-.730469 0-1.320312.589844-1.320312 1.324219v9.261718c0 .730469.589843 1.320313 1.320312 1.320313h1.984375c.734375 0 1.324219-.589844 1.324219-1.320313zm-1.324219.328125v8.601562c0 .183594-.144531.332031-.328125.332031h-1.324219c-.183593 0-.332031-.148437-.332031-.332031v-8.601562c0-.179688.148438-.328125.332031-.328125h1.324219c.183594 0 .328125.148437.328125.328125zm0 0"/><path d="m8.433594 8.726562v-1.324218c0-.183594.148437-.332032.332031-.332032h.164063c.183593 0 .332031.148438.332031.332032v1.324218c0 .179688-.148438.328126-.332031.328126h-.164063c-.183594 0-.332031-.148438-.332031-.328126zm0 0"/><path d="m6.613281 8.726562v-1.324218c0-.183594.148438-.332032.332031-.332032h.167969c.179688 0 .328125.148438.328125.332032v1.324218c0 .179688-.148437.328126-.328125.328126h-.167969c-.183593 0-.332031-.148438-.332031-.328126zm0 0"/></g></svg>

<svg xmlns="http://www.w3.org/2000/svg" xmlns:xlink="http://www.w3.org/1999/xlink" width="16px" height="16px" viewBox="0 0 16 16" version="1.1">
<g id="surface1">
     <defs>
  <style id="current-color-scheme" type="text/css">
   .ColorScheme-Text { color:#eeeeee; } .ColorScheme-Highlight { color:#424242; }
  </style>
 </defs>
<path style="fill:currentColor" class="ColorScheme-Text" d="M 9.261719 8.394531 L 6.613281 8.394531 L 6.613281 7.589844 L 9.261719 7.589844 Z M 9.261719 8.394531 "/>
     <defs>
  <style id="current-color-scheme" type="text/css">
   .ColorScheme-Text { color:#eeeeee; } .ColorScheme-Highlight { color:#424242; }
  </style>
 </defs>
<path style="fill:currentColor" class="ColorScheme-Text" d="M 14.554688 3.433594 C 14.554688 2.699219 13.964844 2.109375 13.230469 2.109375 L 11.246094 2.109375 C 10.511719 2.109375 9.921875 2.699219 9.921875 3.433594 L 9.921875 12.695312 C 9.921875 13.425781 10.511719 14.015625 11.246094 14.015625 L 13.230469 14.015625 C 13.964844 14.015625 14.554688 13.425781 14.554688 12.695312 Z M 13.230469 3.761719 L 13.230469 12.363281 C 13.230469 12.546875 13.082031 12.695312 12.898438 12.695312 L 11.578125 12.695312 C 11.394531 12.695312 11.246094 12.546875 11.246094 12.363281 L 11.246094 3.761719 C 11.246094 3.582031 11.394531 3.433594 11.578125 3.433594 L 12.898438 3.433594 C 13.082031 3.433594 13.230469 3.582031 13.230469 3.761719 Z M 13.230469 3.761719 "/>
     <defs>
  <style id="current-color-scheme" type="text/css">
   .ColorScheme-Text { color:#eeeeee; } .ColorScheme-Highlight { color:#424242; }
  </style>
 </defs>
<path style="fill:currentColor" class="ColorScheme-Text" d="M 5.953125 3.433594 C 5.953125 2.699219 5.363281 2.109375 4.628906 2.109375 L 2.644531 2.109375 C 1.914062 2.109375 1.324219 2.699219 1.324219 3.433594 L 1.324219 12.695312 C 1.324219 13.425781 1.914062 14.015625 2.644531 14.015625 L 4.628906 14.015625 C 5.363281 14.015625 5.953125 13.425781 5.953125 12.695312 Z M 4.628906 3.761719 L 4.628906 12.363281 C 4.628906 12.546875 4.484375 12.695312 4.300781 12.695312 L 2.976562 12.695312 C 2.792969 12.695312 2.644531 12.546875 2.644531 12.363281 L 2.644531 3.761719 C 2.644531 3.582031 2.792969 3.433594 2.976562 3.433594 L 4.300781 3.433594 C 4.484375 3.433594 4.628906 3.582031 4.628906 3.761719 Z M 4.628906 3.761719 "/>
     <defs>
  <style id="current-color-scheme" type="text/css">
   .ColorScheme-Text { color:#eeeeee; } .ColorScheme-Highlight { color:#424242; }
  </style>
 </defs>
<path style="fill:currentColor" class="ColorScheme-Text" d="M 8.433594 8.726562 L 8.433594 7.402344 C 8.433594 7.21875 8.582031 7.070312 8.765625 7.070312 L 8.929688 7.070312 C 9.113281 7.070312 9.261719 7.21875 9.261719 7.402344 L 9.261719 8.726562 C 9.261719 8.90625 9.113281 9.054688 8.929688 9.054688 L 8.765625 9.054688 C 8.582031 9.054688 8.433594 8.90625 8.433594 8.726562 Z M 8.433594 8.726562 "/>
     <defs>
  <style id="current-color-scheme" type="text/css">
   .ColorScheme-Text { color:#eeeeee; } .ColorScheme-Highlight { color:#424242; }
  </style>
 </defs>
<path style="fill:currentColor" class="ColorScheme-Text" d="M 6.613281 8.726562 L 6.613281 7.402344 C 6.613281 7.21875 6.761719 7.070312 6.945312 7.070312 L 7.113281 7.070312 C 7.292969 7.070312 7.441406 7.21875 7.441406 7.402344 L 7.441406 8.726562 C 7.441406 8.90625 7.292969 9.054688 7.113281 9.054688 L 6.945312 9.054688 C 6.761719 9.054688 6.613281 8.90625 6.613281 8.726562 Z M 6.613281 8.726562 "/>
</g>
</svg>
